X:1
T:Sumus Tibi, 11.11.11 D
T:Sumus Tibi, 11.11.11 D
T:Henry Elliott Button, 1891
T:Public Domain Courtesy of the Cyber Hymnal™
C:Henry Elliott Button, 1891
Z:Public Domain
Z:Courtesy of the Cyber Hymnal™
%%score ( 1 2 ) ( 3 4 )
L:1/8
Q:1/4=115
M:4/4
K:Eb
V:1 treble 
V:2 treble 
V:3 bass 
V:4 bass 
V:1
 [EB]2 [EG]2 [B,F]2 [B,E]2 | [B,E]4 [B,D]4 | [Dc]2 [DA]2 [DG]2 [DF]2 | [EB]8 | %4
 [EB]2 [Ge]2 [Ge]2 [Gd]2 | G2 [Gc]2 [Gc]2 [GB]2 | [FA]4 [EG]4 | F8 | [_DB]2 [DG]2 [DF]2 [DE]2 | %9
 (E2 A2) (B2 c2) | [Ec]2 [E=A]2 [EG]2 [EF]2 | d8 | [Fd]2 [F=B]2 [F=A]2 [FG]2 | %13
 [EG]2 [Gc]2 [Gd]2 [Ge]2 | [=Ad]4 [Ac]4 | B8 ([CE]2 [DF]2) | [EGB]2 [EG]2 [B,F]2 [B,E]2 | %17
 [B,E]4 [B,D]4 | [Dc]2 [DA]2 [DG]2 [DF]2 | B8 | [Ee]2 [Ed]2 [Ec]2 [C=EB]2 | %21
 [CFA]2 [FB]2 [EA]2 [EG]2 | [EF]4 [DF]4 x2 | E8 |] %24
V:2
 x8 | x8 | x8 | x8 | x8 | G2 x6 | x8 | (E4 D4) | x8 | C4 E4 | x8 | (D4 F4) | x8 | x8 | x8 | %15
 F2 D2 x8 | x8 | x8 | x8 | (E2 A2 G2 F2) | x8 | x8 | x10 | E8 |] %24
V:3
 [E,G,]2 [E,B,]2 [E,A,]2 [E,G,]2 | [F,A,]4 [F,A,]4 | [B,,A,]2 [B,,C]2 B,2 [A,B,]2 | [G,B,]8 | %4
 [G,B,]2 [G,B,]2 [F,=B,]2 [F,B,]2 | [E,C]2 [E,C]2 [=E,_D]2 [E,D]2 | [F,C]4 [A,,C]4 | (F,4 A,4) | %8
 [E,G,]2 [E,B,]2 [F,A,]2 [G,B,]2 | [A,C]4 [_G,B,]4 | [F,=A,]2 [F,C]2 [G,B,]2 [A,C]2 | B,4 [A,C]4 | %12
 [G,=B,]2 [G,D]2 [=A,C]2 [B,D]2 | C2 [CE]2 [C,F]2 [C,E]2 | [F,E]4 [F,E]4 | %15
 ([B,D]2 A,2 B,4) [F,A,]2 x2 | [E,G,]2 [E,B,]2 [E,A,]2 [E,G,]2 | [F,A,]4 [F,A,]4 | %18
 [B,,A,]2 [B,,C]2 B,2 [A,B,]2 | B,8 | [C,G,]2 [C,G,]2 [A,,A,]2 [C,G,]2 | %21
 F,2 [D,B,]2 [E,B,]2 [G,B,]2 | B,6 z2 A,2 | [E,G,]8 |] %24
V:4
 x8 | x8 | x4 B,2 x2 | x8 | x8 | x8 | x8 | B,,8 | x8 | x8 | x8 | B,4 x4 | x8 | C2 x6 | x8 | %15
 x4 G,2 x6 | x8 | x8 | x4 B,2 x2 | (G,2 F,2 E,2 D,2) | x8 | F,2 x6 | B,4 B,,4 x2 | x8 |] %24

